X:1
T:Prelude and Toccata
T:Prelude and Toccata
T:Op. 57
T:Vinzenz Lachner
C:Vinzenz Lachner
%%score { ( 1 3 ) | ( 2 4 ) }
L:1/8
Q:1/4=56
M:3/4
K:F
V:1 bass nm="Piano" snm="Pno."
V:3 bass 
V:2 bass 
V:4 bass 
V:1
"_con forza\n""^Maestoso" (A,/4=B,/4^C/4 | [F,A,D]7/4^C/4 D2-) D-(D/4A,/4^C/4D/4 | %2
 [F,B,D]7/4^C/4 D2-) D-(D/4B,/4^C/4D/4 | [F,A,D]7/4^C/4 .[F,A,D])!>![A,D]!>![^G,=B,DF]!>![G,B,E] | %4
 ([E,A,D]2 [E,A,^C]2-) [E,A,C-](C/4E/4F/4G/4 | [A,DA]7/4^G/4 [A,DA-]2) [^C=GA-]A/4(^c/4d/4e/4 | %6
 !arpeggio![FAdf]7/4e/4 [Fdf]2-) [Fdf-]f/4(e/4f/4g/4 | %7
 [Ada]7/4[dgbd']/4 .[da])!>![Bdg]!>![Adf]!>![GA^ce] | .[FAd]!f! ([DGB][FA])([B,DG].[DF])E | %9
[K:bass]!>(! [F,A,D]7/4^C/4!>)!!p! D2- D-(D/4A,/4^C/4D/4 | [F,B,D]7/4^C/4 D2-) D-(D/4B,/4C/4D/4 | %11
 [F,A,D]7/4^C/4!<(! [F,A,D])([A,D]!<)!!>(! FE!>)! | %12
 (D2 ^C2-)) [E,A,C]-"_cresc."[E,A,C]/4(E/4F/4G/4 | %13
 [A,DA]7/4^G/4 [A,DA-]2)!f! [^C=GA]/>A/ =B/4(^c/4d/4e/4 | %14
 !arpeggio![FAdf]7/4e/4 [Fdf]2-) [Fdf]/>^c/ d/4(e/4f/4g/4 | %15
 [Ada]7/4[d^gd']/4 .[da])!>![Bd=g]!>![Adf]!>![GA^ce] |!f! .[FAd] ([FAd].[DFA])([A,DF] .[F,A,D]) z | %17
!p! ([F,A,C]2 [F,B,D]2 [G,B,E]2 | [F,A,F]4) ([A,DF]2 | [DFG]4 AB | [CFA]4) ([CFA]2 | %21
 [B,FB]2 [CFA]2 [DFG]2 | [CFc]2 [Dd][Ee][FAf][CFA] | [CFAc]2 [CGB]2 [CFA]2 | %24
 A2 [CEG])[K:bass]!mf!!>(! !tenuto![C,E,C] !tenuto![D,F,C]!tenuto![E,G,C]!>)! | %25
!p! ([F,A,C]2 [F,B,D]2 [G,B,E]2 | [F,A,F]4) ([A,DF]2 | G3 G (3GAB | [CFA]4) ([CFA]2 | %29
 [FAf]2 [EAe]2 [DAd]2 | [EAe]2 [^F^f][^G^g][Aca][EAc] | [EAce]2 [E=Bd]2 [EAc]2 | %32
 [Ac]2 [^G=B]2) z z/4"_cresc." (E/4^F/4^G/4 |!f! [A,EA]7/4^G/4 [^CEA]3) z/4 (A/4d/4e/4 | %34
 [Fdf]7/4e/4 [Adf]3) z/4 (F/4B/4c/4 | [FBd]7/4^c/4"_sempre" [FBd]3)!f! z/4 (d/4g/4a/4 | %36
 [dgb]7/4a/4 [dgb]3) z/4 (d/4e/4f/4 | gf e-)e/4(e/4f/4g/4 c)(B | %38
 A-)A/4"_piu"(A/4B/4c/4!f! ^F-)F/4F/4G/4A/4 DC | B, (D2"_decresc" ^C !tenuto!F!tenuto!F | %40
!p! F2 E2) z z/4!pp! (A,/4=B,/4^C/4 | D7/4^C/4 D2-) D-D/4(A,/4C/4D/4 | %42
 D7/4^C/4 D2-) D-D/4(B,/4C/4D/4 | D7/4^C/4!<(! D)(D!<)!!>(! FE!>)! | %44
 [E,A,D]2 [E,A,^C]2-) [E,A,C-]C/4(E/4F/4G/4 | A7/4^G/4 A2-)"_cresc." A-A/4(A/4B/4c/4 | %46
 F4) z z/4 (^F/4G/4A/4 | D4-)"_dim." D-D/4(D/4E/4F/4 |!p! [=B,F]4) z/!pp! (D/E/F/ | %49
 [=B,F]4) z/!<(! (D/E/F/!<)! | %50
"_poco a poco cresc. e acceler." [^F,=B,D^F]2 [^G,B,^E^G]2 [^A,=E^A]2 | %51
 [=B,=B]2) ([^CE^A^c]2 [^D=A^d]2 | [Ee]2) ([^FA^d^f]2 [^G=d^g]2 | %53
 z!f! .[Adfa] !fermata![Bdeb]2) z/!p! (b/a/b/ || %54
[M:4/4]"^Allegro non troppo." g/b/f/b/ e/b/d/b/ .^c) !fermata!z z/ (g/f/g/ | %55
 e/g/d/g/ ^c/g/B/g/ .A) !fermata!z z/!mf! (e'/d'/e'/ | %56
"_cresc." ^c'/e'/b/c'/!f! g/b/e/g/ ^c/e/B/c/ G/B/E/G/ | %57
"_decresc." ^C/E/B,/C/[K:bass] G,/B,/E,/!p!G,/ !>!^C,E,!>!B,,E, | A,,4- !fermata!A,,) || %59
[M:4/4][K:treble][Q:1/4=144]"^Allegro vivace."[Q:1/2=112]!f!!>(! (aga |: f!>)!!p!aea daca | %61
 !>!Bag^f g)(g=fg | egdg cgBg | !>!Agfe!f!!>(! f)(fef | d!>)!!p!fcf B)(gfg | egdg!f!!>(! c)(aga | %66
 f!>)!!p!aea d)(bab | gbfg!f! e)!>(!(c'bc' | a!>)!!p!c'"_legato assai"ga f)(aef | %69
 dfcd B)"_dim."(dAB | GBFG EGBd | cFCF DGB,E | A,FC!<(!A,) z2 z (A!<)! | %73
!f! !>![dfa]3) (A !>![^cga]3) A |!>(! [dfa]3!>)!!p! (a"_poco sostenuto" Bgfe | fAed !>!T^c4{=Bc} | %76
 d2) z2!<(! z2 z (d!<)! |!f! [gbd']3) (d [^fc'd']3) (d | %78
!>(! [gbd']3)!>)!!p! (d'"_poco sostenuto" _ec'ba | bdag !>!T^f4{=ef} | g2) z2 z (b!p!ab | %81
 gbfb ebdb | cbdb e)(b!f!ab | gbfb ebdb | cbdb e)(gec | [fac']3) (c [_deg]3) (c | %86
 [fac']3) (c [_deg]3) .c | (!>!c2 [fc']) z (!>!d2 [f=bd']) z | (!>!e2 [bc'e']) z (!>!f2 [af']) z | %89
!ff! z (a'g'a' f'a'e'a' | d')(f'e'f' d'f'c'f' | =b)(f'e'f' d'f'c'f' | =bf'_af' fd'd=b | %93
 (c')afc fdAF | dBGD!>(! ECB,G,)!>)! |!p! z (FEC DB,G,C | A,)(FEC DB,G,C | A,)(!>!AFC DB,G,C | %98
 A,)(!>!cAF DB,G,C | A,)AFC A,[I:staff +1]F,C,A,, |1[I:staff -1] z4 z!f!!>(! (aga)!>)! :|2 %101
 z4!mp! z2 .C2 || !>!F4 .F2 .F2 | !>!c4 .c2 .c2 | !>!f4 !>!B4 | !>!e4 !>!A4 | (dc=BA ^G)!f! (ede | %107
 ce=Be c)(ecA | ^G=B^FB G)(BGD | ^C)(=G=FE F)(ed=c | =B)(agf e)(d'c'=b | %111
!>(! ag^fe!>)! ^d) z!mp! .=B2 | !>!e4 .e2 .e2 | !>![=B=b]4 .[Bb]2 .[Bb]2 | !>![ee']4 !>![Aa]4 | %115
 !>![dd']4 !>![Gg]4 |!f! .E(=BAG A)(edc | d)(ag^f g)(d'c'=b | c')(e'!p!=bc' ae'ga | %119
 ^fa!p!ef dfac' | _b)(d'!p!ab gd'fg | eg!p!de cegb |!mf! a)(c'af egec |!f! _e)(gec =BdBG | %124
!mf! _b)(d'bg ^fafd |!f! =f)(afd ^cecA |!p! a4!<(! .A2) .A2!<)! | [FAB]8 | %128
!p! [FA=B]4!<(! .[F^GBd]2 .[FGBd]2!<)! | [EA^c]6 z2 |!p! (!>!A4 .A,2) .A,2 |!>(! [F,A,B,]8!>)! | %132
!p! [F,A,=B,]4 .[F,^G,B,D]2 .[F,G,B,D]2 | .[E,A,^C]2 z2 .[F,^G,=B,D]2 z2 | %134
 .[E,A,^C]2 z2[K:treble] .[^G,=B,DF]2 z2 | .[A,^CE]2 z2 [=Gd=g]4- | %136
 !fermata![Gdg]4[K:bass]"^Lento" (!tenuto!G,2 !tenuto!G,2 | %137
 !fermata![E,A,]7) z/4[Q:1/4=56]!ff! (A,/4=B,/4^C/4 || %138
[M:3/4]"^Maestoso" [F,A,D]7/4^C/4 D2-) D-(D/4A,/4^C/4D/4 | [F,B,D]7/4^C/4 D2-) D-(D/4B,/4^C/4D/4 | %140
 [F,A,D]7/4^C/4 .[F,A,D])!>![A,D]!>![^G,=B,DF]!>![G,B,E] | (D2 ^C2-) C-(C/4E/4F/4G/4 | %142
[K:treble] A7/4!>(!^G/4 A2-)!>)!"_decresc." A-A/4(A/4B/4c/4 | F4) z z/4"_dim." (^F/4G/4A/4 | %144
 D4-!<(! D-)D/4(F/4_E/4D/4!<)! |!mf! !arpeggio!!fermata![B,_EB]4) z/!p!"^piu lento" (E/F/G/ | %146
 [G,^C]4) !fermata!z ||[M:4/4][Q:1/2=112]!f!!>(! (aga | f!>)!!p!aea daca | !>!Bag^f g)(g=fg | %150
 egdg cgBg | Agfe f)!f!!>(!(fef | d!>)!!p!fcf B)(gfg | egde c)!f!!>(!(aga | f!>)!!p!aea d)(bab | %155
 gbfg e)!f!(c'!>(!bc' | a!>)!!p!c'"_legato assai"ga f)(aef | dfcd B)(d"_dim."AB | GBFG EGBd | %159
 cFCF DGB,E | [A,F]CA,)!<(! z z2 z (F-!<)! |!mf! !>![FBf]3) (F- !>![FAf]3) (F- | %162
!>(! !>![FBf]3)!>)!!p! (f"_poco sostenuto" !>!G_edc | dFcB !>!TA4{GA} | B2) z2 z2 z (d- | %165
!mf! !>![dbd']3) (d- !>![dbd']3) (d- |!>(! !>![dbd']3)!>)!!p! (d'"_poco sostenuto" !>!_ec'ba | %167
 bdag !>!T^f4{=ef} | g2) z2 z!p! (bab | gbfb ebdb | ^cbdb e)(b!f!ab | gbfb ebdb | %172
 ^cbdb e)(=c'!p!bc' | ac'gc' ^fc'_ec' | dc'=ec' ^f)(c'!f!bc' | ac'gc' ^fc'_ec' | dc'=ec' ^faf)(d | %177
 !>![gbd']3) (d !>![_e^fa]3) (d | !>![gbd']3) (d !>![_e^fa]3) (d | %179
 !>![gbd']3) ((d !>![_d=eg]3)) (c | !>![fac']3) (c- !>![c=df]3) (B | !>![eb]3) (B- !>![B^ce]3) (A | %182
!f! afdA =Bd^g=b | ^c'a=g^c dfad') |!ff! z!8va(! ([bb']a'b' g'b'f'b'!8va)! | _e'g'f'g' e'g'd'g' | %186
 ^c')(=e'd'e' c'e'bc' | gbeg"^Con fuoco" ^c)(edc | afdA GBAG | fdBF!>(! ^F)(AGF!>)! | %190
!p! d"_cresc. assai"BGD GABd | gdBA!f!!>(! (G4)!>)! |"_poco rall.""^molto espressivo" ^F8 | %193
 !>!=F8 |"_dim." !>!E8- | E8 |!p! [F,A,D]6) z2 | z4!<(! [F,A,D]4!<)! |!>(! [G,B,D_E]8!>)! | %199
 !tenuto![G,B,^C=E]4 !tenuto![G,B,CE]4 |!p! [A,DF]8 | z4!<(! [FAd]4 | [GBd_e]8!<)! | %203
 !tenuto![GB^ce]4"_dim." !tenuto![GBce]4 |!p! [DFA]6 z2 |!f! [^CEGB]8 |!p! [DFA]6 z2 | %207
!mf! [B,^CEG]8 |!p! [A,DF]6 z2 |!ff! [G,B,^CE]4- [G,B,CE](E,G,B, | ^CEGB ^cege' | ^c'bge ^cBAG | %212
"_dim." BGED ^CB,A,G, | .[F,D])(A,"_molto legato e diminuendo"DE FDF^G | AFA^c dAde | %215
 f)(Ade fdf^g | afa^c' d'ad'e' | .f'2) z2 z4 |!pp! !arpeggio![Adfa]8 | !fermata![DF]8 |] %220
V:2
 z/ z/4 | !>![D,,,D,,]2 !>![D,,D,]2 !>![=C,,=C,]2 | [B,,,B,,]2 !>![A,,,A,,]2 !>![G,,,G,,]2 | %3
 [F,,,F,,]3 !>![F,,,F,,] !>![E,,,E,,]!>![E,,,E,,] | %4
 [A,,,A,,]3/2(3(E,,/4^F,,/4^G,,/4 [A,,,A,,]2) [=G,,,=G,,]2 | [F,,,F,,]2 [F,,F,]2 [E,,E,]2 | %6
 [D,,D,]2 [=C,,D,,=C,]2 [B,,,D,,B,,]2 | %7
 [F,,,F,,]7/4[E,,,E,,]/4 .[F,,,F,,]!>![G,,,G,,]!>![A,,,A,,]!>![A,,,A,,] | %8
 .[D,,D,] z/4 (B,/4C/4^C/4 D/) z/ z/4 (E,/4F,/4G,/4 A,/) z/ .[A,,G,] | %9
 [D,,,D,,]2 [D,,D,]2 [=C,,=C,]2 | [B,,,B,,]2 [A,,,A,,]2 [G,,,G,,]2 | %11
 [F,,,F,,]3 [F,,,F,,] [E,,,E,,]2 | [A,,,A,,]3/2(3(E,,/4^F,,/4^G,,/4 [A,,,A,,]2) [=G,,,=G,,]2 | %13
 [F,,,F,,]2 [F,,F,]2 [E,,E,]2 | [D,,D,]2 [C,,D,,C,]2 [B,,,D,,B,,]2 | %15
 [F,,,F,,]7/4[E,,,E,,]/4 .[F,,,F,,]!>![G,,,G,,]!>![A,,,A,,]!>![A,,,A,,] | %16
 .[D,,D,] z/4 (^C,,/4D,,/4E,,/4 F,,/4E,,/4F,,/4^G,,/4 A,,/4G,,/4A,,/4^C,/4 D,) z | %17
 z (.[F,,,F,,].[B,,,B,,].[A,,,A,,].[G,,,G,,].[C,,C,] | %18
 .[D,,D,])(.[A,,,A,,].[D,,D,].[E,,E,].[D,,D,].[C,,C,] | %19
 .[B,,,B,,])(.[A,,,A,,].[B,,,B,,].[G,,,G,,].[C,,C,].[C,,,C,,] | %20
 .[F,,,F,,])(.[C,,C,].[F,,F,].[G,,G,].[F,,F,].[E,,E,] | %21
 .[D,,D,])!tenuto!F,[C,,C,]!tenuto!F,[B,,,B,,]!tenuto!F, | %22
 [A,,,A,,]!tenuto!C,[G,,,G,,]!tenuto!C,[F,,,F,,]!tenuto!C, | %23
 [D,,,D,,]!tenuto!C,[E,,,E,,]!tenuto!C,[F,,,F,,]!tenuto!C, | %24
 [C,,,C,,] [C,,C,]2 [C,,C,] [_B,,,_B,,][G,,,G,,] | %25
 z (.[F,,,F,,].[B,,,B,,].[A,,,A,,].[G,,,G,,].[^C,,^C,] | %26
 .[D,,D,])(.[A,,,A,,].[D,,D,].[E,,E,].[D,,D,].[=C,,=C,] | %27
 .[B,,,B,,])(.[A,,,A,,].[B,,,B,,].[G,,,G,,].[C,,C,].[C,,,C,,] | %28
 .[F,,,F,,])(.[C,,C,].[F,,F,].[G,,G,].[F,,F,].[E,,E,] | %29
 .[D,,D,])!tenuto!A,[C,,C,]!tenuto!A,[=B,,,=B,,]!tenuto!A, | %30
 [C,,C,]!tenuto!E,[=B,,,=B,,]!tenuto!E,[A,,,A,,]!tenuto!E, | %31
 [^F,,,^F,,]!tenuto!E,[^G,,,^G,,]!tenuto!E,[A,,,A,,]!tenuto!E, | %32
 [E,,,E,,] [E,,E,]2 ([E,,,E,,] [E,,E,][D,,D,] | [^C,,^C,])([E,,E,][A,,A,][G,,G,][F,,F,][E,,E,] | %34
 [D,,D,])([A,,A,][D,D][E,E][D,D][C,C] | [B,,B,])([F,,F,][B,,B,][C,C][B,,B,][A,,A,] | %36
 [G,,G,])([D,D][G,G][A,A][G,G][F,F] | [E,E])D,[C,C]([_B,,_B,] [A,,A,])G,, | %38
 [F,,F,]([_E,,_E,][D,,D,])[C,,C,][B,,,B,,][A,,,A,,] | D,-D,/4(D,/4^G,/4A,/4 =G,2) [^G,=B,]2 | %40
 [A,^C]4 z2 | [F,A,]2 [F,A,]4 | [F,B,]2 ([F,B,-]2 [E,B,]2) | [F,A,]2 [F,A,] z z2 | %44
 [A,,,A,,]3/2(3(E,,/4^F,,/4^G,,/4 (A,,2) [=G,,,=G,,]2 | [F,,,F,,]2) [F,,-F,]2 [_E,,_E,]2 | %46
 [D,,F,,D,]2 ([D,F,]2 [C,_E,]2 | [B,,,B,,]2) ([B,,D,]2 [A,,D,]2 | [^G,,D,]4) z2 | [G,,D,]4 z2 | %50
 .[^F,,,^F,,] ([D,,D,]2 [^C,,^C,]2 [=C,,=C,] | .[=B,,,=B,,]) ([G,,G,]2 [^F,,^F,]2 [=F,,=F,] | %52
 .[E,,E,]) ([C,C]2 [=B,,=B,]2 [_B,,_B,] | .[A,,A,]).[A,DF] !fermata![G,DE]2 z[K:treble] (G, || %54
[M:4/4] B).A.G.F .E !fermata!z z[K:bass] (E, | G)(FED ^C) !fermata!z z/[K:treble] (g/f/g/ | %56
 e/g/^c/e/ B/c/G/B/ E/G/^C/E/[K:bass] B,/C/G,/B,/ | E,/G,/^C,/E,/ B,,/C,/G,,/B,,/ E,,G,,D,,G,, | %58
 ^C,,4- !fermata!C,,) ||[M:4/4] (A,,=B,,^C, |: D,2) .A,2 .D2 .F2 | .G,2 .B,2 .D2 .G2 | %62
 .C,2 .G,2 .C2 .E2 | .F,2 .C2 F(F,G,A, | B,) z .A,2 .G,2 .B,2 | .C2 .[A,,A,]2 z (A,B,C | %66
 D) z .C2 .B,2 .D2 | .E2 .[C,C]2 z (CDE | F2 E2 D2 C2 | B,2 A,2 G,2 F,2 | E,2 D,2 C,2 B,,2) | %71
 z2 A,,2 B,,2 C,2 | F, z z2 .E,(^CG,E, | D,)(A,F,D, E,)(^CG,E, | F,)(DA,F,) z2 .[G,B,E]2 | %75
 z2[K:treble] .[A,DF]2 z2 .[A,EG]2 | .[DF](AFE DCB,A, | G,)(DB,G, A,^F)(CA, | B,GDB,) z2 .[C_EA]2 | %79
 z2 .[DGB]2 z2 .[DAc]2 | z (BAB G) z (!>!F2 | =E2) .A2 .G2 .F2 | .E2 .D2 C2[K:bass] (((([F,,F,]2 | %83
 [E,,E,]2)))) .[A,,A,]2 .[G,,G,]2 .[F,,F,]2 | .[E,,E,]2 .[D,,D,]2 .[C,,C,]2 (B,,2 | %85
 A,,)(F,C,A,, B,,)(G,E,B,, | A,,)(F,C,A,, B,,)(G,E,B,, | A,,)(F,C,A,, ^G,,)(F,=B,,G,, | %88
 =G,,)(C,_B,,G,, F,,)(A,,F,,E,, | .D,,2) !^![D,F,A,=B,]6- | [D,F,A,B,]6 z2 | %91
 .D,,2 !^![D,F,_A,=B,]6- | [D,F,A,B,]2 z2 [D,F,_A,=B,]2 z2 | [C,F,A,C]2 z2 [D,F,A,D]2 z2 | %94
 [B,,,B,,]2 z2 [C,,C,]2 z2 | F,,8- | F,,8 | F,,8- | F,,8 | x8 |1 F,, z z2 z (A,,=B,,^C,) :|2 %101
 (F,, z) z2 z (C,B,,C, || A,,C,^G,,C, A,,)(C,A,,F,, | E,,G,,^D,,G,, E,,)(G,,E,,C,, | %104
 !>!D,,)(C,B,,A,, !>!G,,)(F,E,D, | !>!C,)(B,A,G, !>!F,)(EDC | =B,2 D2 E) z .[E,,,E,,]2 | %107
 !>![A,,,A,,]4 .[A,,,A,,]2 .[A,,,A,,]2 | !>![E,,E,]4 .[E,,E,]2 [E,,E,]2 | !>![A,,A,]4 !>![D,,D,]4 | %110
 !>![G,,G,]4 !>![C,,C,]4 | .[^F,,,^F,,]2 .A,,2 =B,, (=B,A,B, | G,=B,^F,B, G,)(B,G,E, | %113
 ^D,^F,^C,F, D,)(F,D,=B,, | !>!^G,,)(=D,=C,=B,, !>!C,)(G,^F,E, | !>!^F,)(C=B,A, !>!B,)(=FED | %116
 !>![C,C]4) !>![^F,,^F,]4 | [=B,,=B,]4 [E,,E,]4 | .[A,,,A,,]2 .D,2 .C,2 .A,,2 | %119
 .[D,,D,]2 .G,2 .^F,2 .D,2 | .[G,,G,]2 .C2 .B,2 .G,2 | .[C,C]2 .F2 .E2 .D2 | !>!F4 !>!C4 | %123
 !>![C,,C,]4 !>![G,,G,]4 | !>!G4 !>!D4 | !>![D,,D,]4 !>![A,,A,]4 | ^C,(A,E,D, C,)(E,C,A,, | %127
 D,)(A,F,E, D,)(F,D,A,, | D,)(A,F,E, D,)(F,D,A,, |!<(! E,)(A,^C!<)!A, E,!>(!^C,A,,E,,!>)! | %130
 ^C,,)(A,,E,,D,,!<(! C,,)(E,,C,,A,,,!<)! | D,,)(A,,F,,E,, D,,)(F,,D,,A,,, | %132
 D,,)"^cresc."(A,,F,,E,, D,,)(F,,D,,A,,, | A,,)(E,,^C,,A,,, A,,)(F,,D,,A,,, | %134
 A,,)(E,,^C,,A,,, A,,)(F,,D,,A,,, | A,,)(E,,^C,,A,,, [_B,,,_B,,]4-) | %136
 !fermata![B,,,B,,]4 ([B,,D,]4 | !fermata![^C,,A,,]7) z || %138
[M:3/4] !>![D,,,D,,]2 !>![D,,D,]2 !>![=C,,=C,]2 | [B,,,B,,]2 !>![A,,,A,,]2 !>![G,,,G,,]2 | %140
 [F,,,F,,]3 !>![F,,,F,,] !>![E,,,E,,]!>![E,,,E,,] | %141
 [A,,,A,,]3/2(3(E,,/4^F,,/4^G,,/4 [A,,,A,,]2 [G,,,=G,,]2 | [F,,,F,,]2) ([F,,F,]2 [_E,,_E,]2 | %143
 [D,,D,]2) ([D,F,]2 [C,_E,]2 | [B,,,B,,]2) ([B,,D,]2 [_A,,B,,D,]2 | %145
 !arpeggio!!fermata![G,,B,,_E,G,]4) z2 | [A,,E,]4 !fermata!z ||[M:4/4] (A,,=B,,^C, | %148
 D,2) .A,2 .D2 .F2 | .G,2 .B,2 .D2 .G2 | .C,2 .G,2 .C2 .E2 | .F,2 .C2 F (F,G,A, | %152
 B,) z .A,2 .G,2 .B,2 | .C2 .[A,,A,]2 z (A,B,C | D) z .C2 .B,2 .D2 | .E2 .[C,C]2 z (CDE | %156
 F2 E2 D2 C2 | B,2 A,2 G,2 F,2 | E,2 D,2 C,2 B,,2) | z2 (A,,2 B,,2 C,2 | .F,2) z (F, _E,CA,E, | %161
 D,)(B,F,D, ^C,)(A,F,C, | D,)(B,F,D,) z2 .[_E,G,C]2 | z2 .[F,B,D]2 z2 .[F,C_E]2 | %164
 .[B,D](FDC B,DB,A, | G,)(DB,G, ^F,)(DB,F, | G,)(DB,G,) z2 .[C,_E,A,]2 | %167
 z2 .[D,G,B,]2 z2 .[D,A,C]2 | z B,A,B, G, z[K:treble] (!>!F2 | =E2) .A2 .G2 .F2 | %170
 .E2 .D2 .C2[K:bass] ((!>![F,,F,]2 | [E,,E,]2)) .[A,,A,]2 .[G,,G,]2 .[F,,F,]2 | %172
 .[E,,E,]2 .[D,,D,]2 .[^C,,^C,]2[K:treble] (!>!G2 | ^F2) .B2 .A2 .G2 | %174
 .^F2 .=E2 .D2[K:bass] ((!>![G,,G,]2 | [^F,,^F,]2)) .[B,,B,]2 .[A,,A,]2 .[G,,G,]2 | %176
 .[^F,,^F,]2 .[=E,,=E,]2 .[D,,D,]2 .C,2 | .B,,(G,D,B,, C,)(A,^F,C, | B,,)(G,D,B,, C,)(A,^F,C, | %179
 B,,)(G,D,B,,- B,,)(G,E,B,, | A,,)(F,C,A,,- A,,)(F,D,A,, | G,,)(E,B,,G,,- G,,)(E,^C,G,, | %182
 .F,,2) .[F,A,D]2 z2 .[F,^G,D]2 | z2 .[E,=G,A,]2 z2 .[D,F,A,]2 | .[G,,G,]2 !^![G,B,D_E]6- | %185
 [G,B,DE]6 z2 | .[G,,G,]2 !^![G,B,^C=E]6- | [G,B,CE]2 z2 .[G,B,^CE]2 z2 | %188
 .[F,A,D]2 z2 .[E,G,B,^C]2 z2 | .[D,F,B,D]2 z2 .[C,_E,^F,A,]2 z2 | [B,,,B,,]2 z2 !>![B,,D,G,]4- | %191
 [B,,D,G,]2 z2!p! [B,,,B,,]4 | [A,,,A,,]8 | [B,,,B,,]8 | ([G,,,G,,]8 | [A,,,A,,]8) | %196
 .D,,(D,A,,G,, F,,A,,F,,D,,- | D,,)(D,A,,G,, F,,A,,F,,!>!D,,- | D,,)(D,B,,A,, G,,B,,A,,G,, | %199
 D,,)(D,B,,A,, G,,B,,A,,G,, | D,,)(F,E,D,!<(! ^C,D,B,,A,,!<)! | %201
!>(! ^G,,A,,=G,,F,,!>)! E,,F,,E,,D,,- |!>(! D,,)(D,B,,A,,!>)! G,,B,,A,,G,, | %203
 D,,)(D,B,,A,, G,,B,,A,,G,, | D,,)(D,A,,G,,!<(! F,,A,,F,,!>!D,,-!<)! | %205
 D,,)!>(!(D,B,,A,, G,,B,,G,,D,,-!>)! | D,,)(D,A,,G,,!<(! F,,A,,F,,!>!D,,-!<)! | %207
 D,,)!>(!(D,B,,A,, G,,B,,G,,D,,-!>)! | D,,)(D,A,,G,, F,,A,,F,,D,,) | %209
 z D,,-E,,-G,,- [D,,E,,G,,^C,]4- | [D,,E,,G,,C,]8 | z8 | z8 | .[D,,D,] z (F,E, D,F,D,B,, | %214
 A,,D,A,,G,, F,,A,,F,,E,, | D,,)(A,,F,,E,, D,,F,,D,,B,,, | A,,,D,,A,,,G,,, F,,,A,,,F,,,E,,, | %217
 .D,,,2) z2 z4 | !arpeggio![A,DF]8 |!ff! !fermata![D,,,A,,,D,,F,A,]8 |] %220
V:3
 x3/4 | x2 [F,A,]4 | z2 ([F,B,-]2 [E,B,]2) | x6 | x6 | x6 | x6 | x6 | x2 x3 ^C/4A,/4=B,/4C/4 | %9
[K:bass] x2 [F,A,]4 | x2 ([F,B,-]2 [E,B,]2) | x4 [^G,=B,D]2 | [E,A,]4- x2 | x6 | x6 | x6 | x6 | %17
 x6 | x6 | x4 [CE]2 | x6 | x6 | x2 [Bc]2 x2 | x6 | [CF][=B,D] x4[K:bass] | x6 | x6 | [DF]4 [CE]2 | %28
 x6 | x6 | x2 [de]2 x2 | x6 | E4 x2 | x6 | x6 | x6 | x6 | G2 G2 x C- | CG ^F_E D x | x6 | x6 | x6 | %42
 x6 | z2 z A, [^G,=B,D]2 | x6 | [A,D]4 [=CF]2 | (C7/4A,/4"_decresc." B,2 A,2) | %47
 (A,7/4^F,/4 G,2 =F,2) | x6 | x6 | x6 | (^DE) x4 | (^GA) x4 | x6 ||[M:4/4] x8 | x8 | x8 | %57
 x2[K:bass] x6 | x5 ||[M:4/4][K:treble] x3 |: x8 | x8 | x8 | x8 | x8 | x8 | x8 | x8 | x8 | x8 | %70
 x8 | x8 | x8 | x8 | x8 | x8 | x8 | x8 | x8 | x8 | x8 | x8 | x8 | x8 | x8 | x8 | x8 | x8 | x8 | %89
 x8 | x8 | x8 | x8 | x8 | x8 | x8 | x8 | x8 | x8 | x8 |1 x8 :|2 x8 || x8 | x8 | x8 | x8 | x8 | x8 | %108
 x8 | x8 | x8 | x8 | x8 | x8 | x8 | x8 | x8 | x8 | x8 | x8 | x8 | x8 | x8 | x8 | x8 | x8 | x8 | %127
 x8 | x8 | x8 | x8 | x8 | x8 | x8 | x4[K:treble] x4 | x8 | x4[K:bass] x4 | x8 || %138
[M:3/4] x2 [F,A,]4 | z2 ([F,B,-]2 [E,B,]2) | x6 | x6 |[K:treble] [A,D]4 [=CF]2 | %143
 (C7/4A,/4 B,2 A,2) | (A,7/4^F,/4 G,2 =F,2) | x6 | x5 ||[M:4/4] x3 | x8 | x8 | x8 | x8 | x8 | x8 | %154
 x8 | x8 | x8 | x8 | x8 | x8 | x8 | x8 | x8 | x8 | x8 | x8 | x8 | x8 | x8 | x8 | x8 | x8 | x8 | %173
 x8 | x8 | x8 | x8 | x8 | x8 | x8 | x8 | x8 | x8 | x8 | x!8va(! x7!8va)! | x8 | x8 | x8 | x8 | x8 | %190
 x8 | z4 GDB,G, | x8 | x8 | x8 | x8 | x8 | x8 | x8 | x8 | x8 | x8 | x8 | x8 | x8 | x8 | x8 | x8 | %208
 x8 | x8 | x8 | x8 | x8 | x8 | x8 | x8 | x8 | x8 | x8 | x8 |] %220
V:4
 x3/4 | x6 | x6 | x6 | x6 | x6 | x6 | x6 | x6 | x6 | x6 | x6 | x6 | x6 | x6 | x6 | x6 | x6 | x6 | %19
 x6 | x6 | x6 | x6 | x6 | x6 | x6 | x6 | x6 | x6 | x6 | x6 | x6 | x6 | x6 | x6 | x6 | x6 | %37
 x z/4 G,/4A,/4=B,/4 x2 x z/4 C,/4D,/4E,/4 | x2 x2 x z/4 ^F,/4G,/4A,/4 | %39
 [G,,,G,,][=F,,,=F,,] [E,,,E,,]2 [D,,,D,,]2 | [A,,,A,,]3 [G,,,G,,] [F,,,F,,][E,,,E,,] | %41
 [D,,,D,,]2 [D,,D,]2 [C,,C,]2 | [B,,,B,,]2 [A,,,A,,]2 [G,,,G,,]2 | %43
 [F,,,F,,]3 [F,,,F,,] [E,,,E,,]2 | x6 | z2 F,,4 | x6 | x6 | x6 | x6 | x6 | x6 | x6 | %53
 x5[K:treble] x ||[M:4/4] x7[K:bass] x | x13/2[K:treble] x3/2 | x6[K:bass] x2 | x8 | x5 || %59
[M:4/4] x3 |: x8 | x8 | x8 | x8 | x8 | x8 | x8 | x8 | x8 | x8 | x8 | x8 | x8 | x8 | x8 | %75
 x2[K:treble] x6 | x8 | x8 | x8 | x8 | x8 | x8 | x6[K:bass] x2 | x8 | x8 | x8 | x8 | x8 | x8 | x8 | %90
 x8 | x8 | x8 | x8 | x8 | z2 (A,,2 B,,2 E,2 | F,2) (A,,2 B,,2 E,2 | F,2) A,,2 B,,2 E,2 | %98
 F,2 A,,2 B,,2 E,2 | F, z z2 x4 |1 x8 :|2 x8 || x8 | x8 | x8 | x8 | x8 | x8 | x8 | x8 | x8 | x8 | %112
 x8 | x8 | x8 | x8 | x8 | x8 | x8 | x8 | x8 | x8 | x8 | x8 | x8 | x8 | x8 | x8 | x8 | x8 | x8 | %131
 x8 | x8 | x8 | x8 | x8 | x8 | x8 ||[M:3/4] x6 | x6 | x6 | [E,A,]2 [E,A,]2- [E,A,]2 | x6 | x6 | %144
 x6 | x6 | x5 ||[M:4/4] x3 | x8 | x8 | x8 | x8 | x8 | x8 | x8 | x8 | x8 | x8 | x8 | x8 | x8 | x8 | %162
 x8 | x8 | x8 | x8 | x8 | x8 | x6[K:treble] x2 | x8 | x6[K:bass] x2 | x8 | x6[K:treble] x2 | x8 | %174
 x6[K:bass] x2 | x8 | x8 | x8 | x8 | x8 | x8 | x8 | x8 | x8 | x8 | x8 | x8 | x8 | x8 | x8 | x8 | %191
 x8 | z (^F,A,^C DA,F,D) | z (F,B,^C DB,F,D) | z (E,B,^C DB,E,D) | z (E,A,D ^CA,E,C) | x8 | x8 | %198
 x8 | x8 | x8 | x8 | x8 | x8 | x8 | x8 | x8 | x8 | x8 | x D,,3 x4 | z8 | x8 | x8 | x8 | x8 | x8 | %216
 x8 | x8 | x8 | x8 |] %220

